X:19287
T:Älta gånglåt
R:Da Capo al Fine  Fine
C:av Gunnar Säfsund, Älta
M:2/4
L:1/8
Q:190
K:C
(gf)|:"C"e(e/f/) ge|c2 dc|"F"B>A A2-|A2 f>e|"Dm"d(d/e/) fe|d2 a2|\
"G7"g(d/e/) fg|"C"e3 (g/f/)|"C"e(e/f/) ge|c2 dc|"F"B>A A2-|A>(f f>)e|\
"Dm"d(d/e/) fe|d2 a2|"G7"g(B/c/) de|"C"c3z|]\
K:G
"G"G(G/A/) Bc|d2 cB|"D"(A/G/)A/B/ cB|A3  (A/G/)|F(F/G/) A(A/B/)|\
cd/c/ BA|"G"B2 Gd-|d3 (d/c/)|B(B/c/) dB/d/-|d4|"E7"B(B/c/) dB|\
"Am"c2 (c/B/)A/G/|"D"F(F/G/) A(A/B/)|"D7"cd/c/ BA|"G"G4-|"G7"G g2 =f:|\
T:Da Capo al Fine   Fine
K:C
T:Andrastämma
(ed)|:cc/d/ ec/G/|E2 FG|G>F F2-|F2 A>G|FF/G/ AG|[F2A2] [F2A2]|\
eB/c/ de|c3 e/d/|cc/d/ ec/G/|E2 FG|G>F F2-|F>A- A>G|FF/G/ AG|\
[F2A2] [F2A2]|FG/A/ FG|[G,3E3]z|]\
K:G
B,B,/D/ GA|B2 AG|(F/E/)F/G/ AG|F3 F/E/|DD/E/ FF/G/|AB/A/ GF|\
G2 DB-|B3 B/A/|GG/A/ BG/B/-|B4|EE/^G/ BG|A2 (A/G/)F/E/|\
DD/E/ FF/G/|AB/A/ DC|[B,4-D4]|[B,D] e2 d:|


